icons/line/ghost.svg

<svg width="24" height="24" viewBox="0 0 24 24" fill="none" xmlns="http://www.w3.org/2000/svg">
<path fill-rule="evenodd" clip-rule="evenodd" d="M6.4157 3.78847C8.28887 2.43978 10.5066 2 12 2C15.5259 2 17.8261 3.49153 19.2115 5.4157C20.5602 7.28887 21 9.50664 21 11V20C21 20.4045 20.7564 20.7691 20.3827 20.9239C20.009 21.0787 19.5789 20.9931 19.2929 20.7071L18 19.4142L16.4142 21C15.6332 21.781 14.3668 21.781 13.5858 21L12 19.4142L10.4142 21C9.63316 21.781 8.36683 21.781 7.58579 21L6 19.4142L4.70711 20.7071C4.42111 20.9931 3.99099 21.0787 3.61732 20.9239C3.24364 20.7691 3 20.4045 3 20V11C3 7.47408 4.49153 5.17386 6.4157 3.78847ZM7.5843 5.41153C6.17513 6.42614 5 8.12592 5 11V17.6816C5.76486 17.2395 6.75985 17.3456 7.41421 18L9 19.5858L10.5858 18C11.3668 17.219 12.6332 17.219 13.4142 18L15 19.5858L16.5858 18C17.2401 17.3456 18.2351 17.2395 19 17.6816V11C19 9.82669 18.6398 8.04446 17.5885 6.5843C16.5739 5.17513 14.8741 4 12 4C10.8267 4 9.04446 4.36022 7.5843 5.41153ZM7 10C7 8.89543 7.89543 8 9 8C10.1046 8 11 8.89543 11 10C11 11.1046 10.1046 12 9 12C7.89543 12 7 11.1046 7 10ZM15 8C13.8954 8 13 8.89543 13 10C13 11.1046 13.8954 12 15 12C16.1046 12 17 11.1046 17 10C17 8.89543 16.1046 8 15 8Z" fill="currentColor"/>
</svg>

<svg width="24" height="24" fill="none" xmlns="http://www.w3.org/2000/svg"><path fill-rule="evenodd" clip-rule="evenodd" d="M6.416 3.788C8.289 2.44 10.506 2 12 2c3.526 0 5.826 1.492 7.212 3.416C20.56 7.289 21 9.506 21 11v9a1 1 0 01-1.707.707L18 19.414 16.414 21a2 2 0 01-2.828 0L12 19.414 10.414 21a2 2 0 01-2.828 0L6 19.414l-1.293 1.293A1 1 0 013 20v-9c0-3.526 1.492-5.826 3.416-7.212zm1.168 1.624C6.175 6.426 5 8.126 5 11v6.682A2 2 0 017.414 18L9 19.586 10.586 18a2 2 0 012.828 0L15 19.586 16.586 18A2 2 0 0119 17.682V11c0-1.173-.36-2.956-1.412-4.416C16.575 5.175 14.874 4 12 4c-1.173 0-2.956.36-4.416 1.412zM7 10a2 2 0 114 0 2 2 0 01-4 0zm8-2a2 2 0 100 4 2 2 0 000-4z" fill="currentColor"/></svg>
